X:1
T:Mein Lieb will mit mir kriegen
T:Hans Leo Hassler
T:(1564 - 1612)
T:Mein Lieb will mit mir kriegen
T:(C) Wim Looyestijn - 2010
T:(C) Wim Looyestijn - 2010
T:(C) Wim Looyestijn - 2010
T:(C) Wim Looyestijn - 2010
T:(C) Wim Looyestijn - 2010
T:(C) Wim Looyestijn - 2010
T:(C) Wim Looyestijn - 2010
T:(C) Wim Looyestijn - 2010
T:(C) Wim Looyestijn - 2010
T:(C) Wim Looyestijn - 2010
T:(C) Wim Looyestijn - 2010
T:(C) Wim Looyestijn - 2010
T:(C) Wim Looyestijn - 2010
T:(C) Wim Looyestijn - 2010
T:(C) Wim Looyestijn - 2010
T:(C) Wim Looyestijn - 2010
C:Hans Leo Hassler
Z:(C) Wim Looyestijn - 2010
%%score [ ( 1 2 ) ( 3 4 ) ] [ ( 5 6 ) ( 7 8 ) ]
L:1/8
Q:1/4=160
M:4/4
K:G
V:1 treble nm="S A"
V:2 treble 
V:3 bass nm="T B"
V:4 bass 
V:5 treble nm="S A"
V:6 treble 
V:7 bass nm="T B"
V:8 bass 
V:1
 d2 dd e2 e2 | d4 d2 c2 | B2 B2 A2 A2 | G4 z4 | z8 | z8 | z4 z2 B2 | B3 A G2 F2 | E4 F2 A2 | %9
w: |||||||||
 B2 d2 d2 ^c2 | d8 | z8 | z8 | z8 | z4 z2 A2 | A2 A2 A2 B2 | c4 B2 A2 | ^G2 A2 A2 G2 | A4 z2 d2 | %19
w: ||||||||||
 d2 d2 d2 d2 | e4 e2 c2 | d2 d2 d2 d2 | d8 || d2 dd e2 e2 | d4 d2 c2 | B2 B2 A2 A2 | G4 z4 | z8 | %28
w: |* * sie|ja- gen g'schwind in|d'Flucht.||||||
 z8 | z4 z2 B2 | B3 A G2 F2 | E4 F2 A2 | B2 d2 d2 ^c2 | d8 | z8 | z8 | z8 | z4 z2 A2 | %38
w: ||||||||||
 A2 A2 A2 B2 | c4 B2 A2 | ^G2 A2 A2 G2 | A4 z2 d2 | d2 d2 d2 d2 | e4 e2 c2 | d2 d2 d2 d2 | d4 B4 | %46
w: |||||* * sie|ja- gen g'schwind in||
 c8 | z4 B4 | A4 z4 | z4 z2 A2 | G2 F2 E4 | F2 A2 c2 c2 | (BA) A4 ^G2 | A4 z4 | z8 | z4 z2 A2 | %56
w: ||||||||||
 A2 G2 A2 B2 | c4 B2 d2 | c2 A2 B2 A2 | A8 | z8 | z8 | z8 | z8 | BBBB B2 d2 | B4 z4 | BBBB B2 d2 | %67
w: |||||||||||
 B4 z2 B2 | B2 B2 d2 d2 | B4 z2 B2 | B2 B2 d2 B2 | A4 z4 | dddd d2 ^c2 | d4 z4 | dddd d2 ^c2 | %75
w: ||||||||
 d4 z2 A2 | F2 F2 G2 E2 | F2 d2 d2 ^c2 | d2 A2 B2 A2 | A8 | z4 A4 | B8 | z4 e4 | ^c8 | z8 | z8 | %86
w: |||||||||||
 z8 | z8 | z8 | z4 A4 | A6 A2 | A4 G4 | F8- | F4 B4- | B4 A4- | A4 G4 | F6 F2 | ^G8 | z8 | z8 | %100
w: ||||||||||||||
 z8 | z4 A4 | B2 A2 G2 F2 | E4 E2 F2 | G2 F2 F2 E2 | F4 z2 d2 | d2 d2 d2 d2 | e4 e2 c2 | %108
w: |||||||* * dein|
 d2 d2 d2 A2 | B4 B4 | B2 d2 B2 B2 | c4 c2 c2 | B2 B2 A3 F | B4 d4 | e4 d4 | c6 c2 | B8 |] %117
w: G'fang- ner will ich|||||||||
V:2
 G2 GG G2 G2 | G4 D2 A2 | F2 G2 G2 F2 | G4 x4 | x8 | x8 | x6 G2 | G3 E D2 D2 | ^C4 D2 F2 | %9
w: Mein Lieb will mit mir|krie- gen, hat|sich ge- rüst zur|Schlacht.|||Läszt|ih- re Fah- nen|flie- gen, trutzt|
 G2 G2 E2 E2 | F8 | x8 | x8 | x8 | x6 F2 | F2 F2 F2 G2 | G4 G2 E2 | E2 E2 =F2 E2 | ^C4 x2 D2 | %19
w: auf ihr gro- sze|Macht.||||Ver-|meint, ich soll sie|flie- hen, hab|Liebs Krieg nie ver-|sucht, gen|
 D2 G2 G2 G2 | G4 C4 | z2 G2 FEDD | D8 || G2 GG G2 G2 | G4 D2 A2 | F2 G2 G2 F2 | G4 x4 | x8 | x8 | %29
w: ihr will ich auch|zie- ren,|sie ja- gen g'schwind in|d'Flucht.|Mein Lieb will mit mir|krie- gen, hat|sich ge- rüst zur|Schlacht.-|||
 x6 G2 | G3 E D2 D2 | ^C4 D2 F2 | G2 G2 E2 E2 | F8 | x8 | x8 | x8 | x6 F2 | F2 F2 F2 G2 | %39
w: Läszt|ih- re Fah- nen|flie- gen, trutzt|auf ihr gro- sze|Macht.||||Ver-|meint, ich soll sie|
 G4 G2 E2 | E2 E2 =F2 E2 | ^C4 x2 D2 | D2 G2 G2 G2 | G4 C4 | z2 G2 FEDD | D4 G4 | G8 | x4 G4 | %48
w: flie- hen, hab|Liebs Krieg nie ver-|sucht, gen|ihr will ich auch|zie- ren,|* ja- gen g'schwind in|d'Flucht. Frisch|her,|frisch|
 x4 z4 | x6 D2 | D2 D2 ^C4 | D2 F2 G2 A2 | =F4 E4 | ^C4 x4 | x8 | x6 E2 | F2 E2 F2 G2 | A4 G2 G2 | %58
w: |tu|tap- fer schie-|szen mit dein'm ver-|gif- ten|Pfeil,||dein|Hoch- mut will ich|bü- szen, gar|
 G2 F2 G2 E2 | F8 | x8 | x8 | x8 | x8 | GGGG G2 F2 | G4 x4 | GGGG G2 F2 | G4 x2 D2 | D2 G2 F2 G2 | %69
w: bald in schnel- ler|Eil.|||||Di- ri di- ri di- ri-|don,|di- ri- di- ri- di- ri-|don. Schiesz|zu nur g'schwind dar-|
 G4 x2 G2 | G2 G2 F2 G2 | F4 x4 | FFFF F2 E2 | F4 x4 | FFFF F2 E2 | D4 x2 E2 | D2 D2 D2 ^C2 | %77
w: an. Schiesz|zu nur g'schwind dar|an.|Di- ri di- ri di- ri-|don,|di- ri- di- ri- di- ri-|don. Schiesz|zu nur g'schwind dar-|
 D2 F2 E2 E2 | F2 F2 G2 E2 | F8 | x4 F4 | ^D8 | x4 B,4 | E8 | x8 | x8 | x8 | x8 | x8 | x4 E4 | %90
w: an. nur g'schwind dar|an. nur g'schwind dar|an.|Ach|weh,|ach|weh,||||||viel|
 F6 F2 | F4 E4 | ^D8- | D4 D4 | E4 F4 | ^D4 E4- | E4 ^D4 | E8 | x8 | x8 | x8 | x4 F4 | %102
w: Blut hab|ich ber-|gos-|* sen,|töt- lich|ver- wun-|* det|hart.||||O|
 G2 E2 D2 D2 | ^C4 C2 D2 | E2 D2 ^C2 C2 | D4 x2 D2 | D2 G2 G2 G2 | G4 C4 | z2 G2 FEDD | D4 G4 | %110
w: Lieb, ich tu mich|ge- ben dir|auf die Gna- de|dein. Ich|bitt, schenk mit das|Le- ben,|* G'fang- ner will ich|sein. ich|
 G2 G2 D2 G2 | E4 E2 E2 | B,2 G2 G2 F2 | G4 G4 | E4 G4 | E6 E2 | G8 |] %117
w: bitt, schenk mit das|Le- ben, dein|G'fang- ner will ich|sein. dein|G'fang- ner|will ich|sein.|
V:3
 B,2 B,B, B,2 C2 | B,4 B,2 E2 | D2 D2 E2 D2 | B,4 z4 | z8 | z8 | z4 z2 D2 | D3 C B,2 A,2 | %8
w: ||||||||
 A,4 A,2 D2 | D2 D2 E2 A,2 | A,8 | z8 | z8 | z8 | z4 z2 D2 | D2 D2 D2 D2 | E4 D2 C2 | %17
w: |||||||||
 B,2 C2 B,2 B,2 | A,4 z2 B,2 | B,2 B,2 B,2 B,2 | C4 C2 C2 | B,2 B,2 D2 D2 | B,8 || %23
w: |||* * sie|ja- gen g'schwind in|d'Flucht.|
 B,2 B,B, B,2 C2 | B,4 B,2 E2 | D2 D2 E2 D2 | B,4 z4 | z8 | z8 | z4 z2 D2 | D3 C B,2 A,2 | %31
w: ||||||||
 A,4 A,2 D2 | D2 D2 E2 A,2 | A,8 | z8 | z8 | z8 | z4 z2 D2 | D2 D2 D2 D2 | E4 D2 C2 | %40
w: |||||||||
 B,2 C2 B,2 B,2 | A,4 z2 B,2 | B,2 B,2 B,2 B,2 | C4 C2 C2 | B,2 B,2 D2 D2 | B,4 D4 | E8 | z4 D4 | %48
w: |||* * sie|ja- gen g'schwind in|d'Flucht. *|||
 D4 z4 | z4 z2 F,2 | B,2 A,2 A,4 | A,2 D2 E2 E2 | D4 B,4 | A,4 z4 | z8 | z4 z2 ^C2 | D2 B,2 D2 D2 | %57
w: |||||||||
 E4 E2 D2 | E2 D2 D2 ^C2 | D8 | z8 | z8 | z8 | z8 | DDDD D2 D2 | D4 z4 | DDDD D2 D2 | D4 z2 F,2 | %68
w: |||||||||||
 D2 D2 B,2 G,2 | D4 z2 D2 | D2 D2 D2 D2 | D4 z4 | A,A,A,A, A,2 A,2 | A,4 z4 | A,A,A,A, A,2 A,2 | %75
w: |||||||
 A,4 z2 A,2 | A,2 A,2 B,2 A,2 | A,2 A,2 E2 A,2 | A,2 D2 B,2 E2 | D8 | z4 D,4 | F,8 | z4 ^G,4 | %83
w: ||||||||
 A,8 | z8 | z8 | z8 | z8 | z8 | z4 ^C4 | D6 D2 | D4 B,4 | B,8- | B,4 F,4 | B,4 C4 | B,8 | B,4 B,4 | %97
w: ||||||||||||ver-|wun- det|
 B,8 | z8 | z8 | z8 | z4 D4 | D2 C2 B,2 A,2 | A,4 A,2 A,2 | C2 A,2 A,2 A,2 | A,4 z2 B,2 | %106
w: hart.|||||||||
 B,2 B,2 B,2 B,2 | G,4 E,2 E,2 | B,2 B,2 D2 D2 | B,4 D4 | D2 B,2 D2 D2 | C4 G,2 A,2 | %112
w: ||||||
 F,2 G,2 A,2 A,2 | G,4 B,4 | C4 D4 | E4 C4 | D8 |] %117
w: |||||
V:4
 G,2 G,G, E,2 C,2 | G,4 G,,2 A,,2 | B,,2 G,,2 C,2 D,2 | G,,4 x4 | x8 | x8 | x4 G,4 | %7
w: |||||||
 G,,3 A,, B,,2 D,2 | A,,4 D,2 D,2 | G,2 B,2 A,2 A,,2 | D,8 | x8 | x8 | x8 | x4 D,4 | %15
w: ||||||||
 D,2 D,2 D,2 G,2 | C,4 G,,2 A,,2 | E,2 C,2 D,2 E,2 | A,,4 x2 G,,2 | G,,2 G,,2 G,,2 G,,2 | %20
w: |||||
 C,4 C,2 E,2 | D,2 D,2 D,2 D,2 | G,8 || G,2 G,G, E,2 C,2 | G,4 G,,2 A,,2 | B,,2 G,,2 C,2 D,2 | %26
w: ||||||
 x4 z4 | x8 | x8 | x4 G,4 | G,,3 A,, B,,2 D,2 | A,,4 D,2 D,2 | G,2 B,2 A,2 A,,2 | D,8 | x8 | x8 | %36
w: ||||||||||
 x8 | x4 D,4 | D,2 D,2 D,2 G,2 | C,4 G,,2 A,,2 | E,2 C,2 D,2 E,2 | A,,4 x2 G,,2 | %42
w: ||||||
 G,,2 G,,2 G,,2 G,,2 | C,4 C,2 E,2 | D,2 D,2 D,2 D,2 | G,4 G,,4 | C,8 | x4 G,4 | D,4 x4 | x6 D,2 | %50
w: ||||||||
 B,,2 D,2 A,,4 | D,2 D,2 C,2 A,,2 | D,4 E,4 | A,,4 x4 | x8 | x4 A,,4 | D,2 E,2 D,2 B,,2 | %57
w: |||||||
 A,,4 E,2 B,,2 | C,2 D,2 G,,2 A,,2 | D,8 | x8 | x8 | x8 | x8 | G,G,G,G, G,2 B,2 | G,4 x4 | %66
w: |||||||||
 G,G,G,G, G,2 B,2 | G,4 x2 D,2 | G,2 G,2 B,2 B,2 | G,4 x2 G,2 | G,,2 G,,2 B,,2 G,,2 | D,4 x4 | %72
w: ||||||
 D,D,D,D, D,2 A,,2 | D,4 x4 | D,D,D,D, D,2 A,,2 | D,4 x2 A,,2 | D,2 D,2 G,,2 A,,2 | %77
w: |||||
 D,2 D,2 E,2 A,2 | D,2 D,2 G,,2 A,,2 | D,8 | x4 D,4 | B,,8 | x4 E,4 | A,,8 | x8 | x8 | x8 | x8 | %88
w: |||||||||||
 x8 | x4 A,,4 | D,6 D,2 | D,4 E,4 | B,,8- | B,,4 B,,4 | ^G,,4 A,,4 | B,,8 | B,,4 B,,4 | E,8 | x8 | %99
w: |||||||||||
 x8 | x8 | x4 D,4 | G,,2 A,,2 B,,2 D,2 | A,,4 A,,2 D,2 | C,2 D,2 A,,2 A,,2 | D,4 x2 G,,2 | %106
w: |||||||
 G,,2 G,,2 G,,2 G,,2 | C,4 C,2 E,2 | D,2 D,2 D,2 D,2 | G,4 G,4 | G,,2 G,,2 G,,2 G,,2 | %111
w: |* * dein|G'fang- ner will ich|sein. *||
 C,4 C,2 A,,2 | B,,2 G,,2 D,2 D,2 | G,,4 G,4 | C,4 B,,4 | C,6 C,2 | G,,8 |] %117
w: ||||||
V:5
 z8 | z8 | z8 | d2 dd e2 e2 | d4 d2 c2 | B2 B2 A2 A2 | G8 | z8 | z8 | z8 | z4 z2 A2 | B3 A G2 F2 | %12
w: ||||||||||||
 E4 F2 A2 | B2 d2 d2 ^c2 | d8 | z8 | z8 | z8 | z4 B4 | B2 B2 B2 B2 | c4 c2 c2 | G2 B2 A2 A2 | B8 || %23
w: |||||||||||
 z8 | z8 | z8 | d2 dd e2 e2 | d4 d2 c2 | B2 B2 A2 A2 | G8 | z8 | z8 | z8 | z4 z2 A2 | B3 A G2 F2 | %35
w: ||||||||||||
 E4 F2 A2 | B2 d2 d2 ^c2 | d8 | z8 | z8 | z8 | z4 B4 | B2 B2 B2 B2 | c4 c2 c2 | G2 B2 A2 A2 | B8 | %46
w: |||||||||||
 z4 c4 | B8 | z2 A2 G2 F2 | E4 F4 | z8 | z8 | z8 | z2 ^c2 d2 =c2 | (BA) A4 ^G2 | A8 | z8 | z8 | %58
w: ||||||||||||
 z8 | z4 z2 A2 | B2 A2 B2 ^c2 | d4 d2 c2 | B2 B2 A2 A2 | G8 | z8 | GGGG G2 F2 | G4 z4 | %67
w: |||||||||
 GGGG G2 F2 | G4 z2 D2 | D2 G2 F2 G2 | G4 z4 | FFFF F2 A2 | F4 z4 | FFFF F2 A2 | F4 z2 A2 | %75
w: ||||||||
 A2 A2 B2 A2 | A4 z2 A2 | A2 d2 B2 A2 | A2 d2 d2 ^c2 | d4 A4 | F8 | z4 B4 | ^G8 | z4 A4- | %84
w: |||* nur g'schwind dar-|an. *|||||
 A4 d2 c2 | B2 A2 G4 | G2 G2 c4- | c2 B2 A4- | A4 ^G4 | A8 | z8 | z8 | z8 | z8 | z8 | z8 | z8 | %97
w: |||||||||||||
 z4 ^G4 | A2 G2 F2 F2 | E4 E2 F2 | G2 F2 E2 E2 | F8 | z8 | z8 | z8 | z4 B4 | B2 d2 B2 B2 | %107
w: ||||||||||
 c4 c2 c2 | B2 B2 A2 d2 | d4 z2 d2 | d2 d2 d2 d2 | e4 e2 c2 | d2 d2 d3 A | B8 | z2 G2 G2 G2 | %115
w: ||||* * dein|G'fang- ner will ich|||
 c4 e4 | d8 |] %117
w: ||
V:6
 x8 | x8 | x8 | G2 GG G2 G2 | G4 D2 A2 | F2 G2 G2 F2 | G8 | x8 | x8 | x8 | x6 F2 | G3 E D2 D2 | %12
w: |||Mein Lieb will mit mir|krie- gen, hat|sich ge- rüst zur|Schlacht.||||Läszt|ih- re Fah- nen|
 ^C4 D2 F2 | G2 G2 E2 E2 | F8 | x8 | x8 | x8 | x4 G4 | G2 G2 D2 G2 | E4 E2 A2 | G2 G2 G2 F2 | G8 || %23
w: flie- gen, trutzt|auf ihr gro- sze|Macht.||||gen|ihr will ich auch|zie- ren, sie|ja- gen g'schwind in|d'Flucht.|
 x8 | x8 | x8 | G2 GG G2 G2 | G4 D2 A2 | F2 G2 G2 F2 | G8 | x8 | x8 | x8 | x6 F2 | G3 E D2 D2 | %35
w: |||Mein Lieb will mit mir|krie- gen, hat|sich ge- rüst zur|Schlacht.-||||Läszt|ih- re Fah- nen|
 ^C4 D2 F2 | G2 G2 E2 E2 | F8 | x8 | x8 | x8 | x4 G4 | G2 G2 D2 G2 | E4 E2 A2 | G2 G2 G2 F2 | G8 | %46
w: flie- gen, trutzt|auf ihr gro- sze|Macht.||||gen|ihr will ich auch|zie- ren, sie|ja- gen g'schwind in|d'Flucht.|
 x4 G4 | G8 | z2 D2 D2 D2 | ^C4 D4 | x8 | x8 | x8 | z2 E2 =F2 A2 | =F4 E4 | E8 | x8 | x8 | x8 | %59
w: Frisch|her,|tu tap- fer|schie- szen||||mit dein'm ver-|gif- ten|Pfeil,||||
 x6 F2 | G2 A2 G2 G2 | F4 F2 A2 | F2 G2 G2 F2 | G8 | x8 | DDDD D2 D2 | D4 x4 | DDDD D2 D2 | %68
w: dein|Hoch- mut will ich|bü- szen, gar|bald in schnel- ler|Eil.||Di- ri di- ri di- ri-|don,|di- ri- di- ri- di- ri-|
 D4 x2 B,2 | B,2 B,2 D2 D2 | B,4 x4 | DDDD D2 E2 | D4 x4 | DDDD D2 ^C2 | D4 x2 E2 | F2 F2 G2 E2 | %76
w: don. Schiesz|zu nur g'schwind dar-|an.|Di- ri di- ri di- ri-|don,|di- ri- di- ri- di- ri-|don. Schiesz|zu nur g'schwind dar-|
 F4 x2 E2 | D3 F G2 E2 | D4 z4 | z4 A,4 | D8 | x4 ^D4 | E8 | x4 E4 | F2 E2 D4- | D2 C2 B,4 | %86
w: an. Schiesz|zu nur g'schwind dar|an.|Ach|weh,|ach|weh,|Ach|weh, ich bin|* durch- scho-|
 E6 E2 | E4 E4 | E6 E2 | ^C8 | x8 | x8 | x8 | x8 | x8 | x8 | x8 | x4 E4 | E2 E2 D2 D2 | ^C4 C2 D2 | %100
w: szen mit|ih- ren|Äug- lein|zart.||||||||O|Lieb, ich tu mich|ge- ben dir|
 D2 D2 ^C2 C2 | D8 | x8 | x8 | x8 | x4 G4 | G2 G2 D2 G2 | E4 E2 E2 | B,2 G2 G2 F2 | G4 z2 D2 | %110
w: auf die Gna- de|dein.||||Ich|bitt, schenk mit das|Le- ben, dein|G'fang- ner will ich|sein. ich|
 D2 G2 G2 G2 | G4 C4 | z2 G2 FEDD | D8 | x2 G2 D2 B,2 | G6 G2 | G8 |] %117
w: bitt, schenk mit das|Le- ben,||sein.|dein G'fang- ner|will ich|sein.|
V:7
 z8 | z8 | z8 | B,2 B,B, B,2 C2 | B,4 B,2 E2 | D2 D2 E2 D2 | B,8 | z8 | z8 | z8 | z4 z2 D2 | %11
 D3 C B,2 A,2 | A,4 A,2 D2 | D2 D2 E2 A,2 | A,8 | z8 | z8 | z8 | z4 D4 | D2 D2 D2 D2 | C4 C2 C2 | %21
 B,2 D2 D2 A,2 | G,8 || z8 | z8 | z8 | B,2 B,B, B,2 C2 | B,4 B,2 E2 | D2 D2 E2 D2 | B,8 | z8 | z8 | %32
 z8 | z4 z2 D2 | D3 C B,2 A,2 | A,4 A,2 D2 | D2 D2 E2 A,2 | A,8 | z8 | z8 | z8 | z4 D4 | %42
 D2 D2 D2 D2 | C4 C2 C2 | B,2 D2 D2 A,2 | G,8 | z4 E4 | D8 | z2 F,2 B,2 A,2 | A,4 A,4 | z8 | z8 | %52
 z8 | z2 A,2 A,2 E2 | D4 B,4 | ^C8 | z8 | z8 | z8 | z4 z2 D2 | D2 D2 D2 E2 | A,4 A,2 E2 | %62
 D2 D2 E2 D2 | B,8 | z8 | B,B,B,B, B,2 B,2 | B,4 z4 | B,B,B,B, B,2 D2 | B,4 z2 G,2 | %69
 G,2 D2 D2 B,2 | D4 z4 | A,A,A,A, A,2 E,2 | A,4 z4 | A,A,A,A, A,2 A,2 | A,4 z2 A,2 | A,A, D4 ^C2 | %76
 D4 z2 A,2 | A,2 A,2 E,3 A, | A,2 A,2 E2 A,2 | A,4 z2 D,2 | A,8 | z4 B,4 | B,8 | z4 ^C4 | %84
 D2 A,2 B,2 C2 | D8 | C6 A,2 | G,4 C4 | B,6 B,2 | A,8 | z8 | z8 | z8 | z8 | z8 | z8 | z8 | z4 B,4 | %98
 C2 B,2 A,2 A,2 | A,4 A,2 A,2 | B,2 A,2 A,2 A,2 | A,8 | z8 | z8 | z8 | z4 D4 | D2 B,2 D2 D2 | %107
 C4 G,2 A,2 | F,2 G,2 A,2 A,2 | G,4 z2 B,2 | B,2 B,2 B,2 B,2 | G,4 E,2 E,2 | B,2 B,2 D2 D2 | B,8 | %114
 z2 G,2 B,2 G,2 | G,4 G,4 | B,8 |] %117
V:8
 x8 | x8 | x8 | G,2 G,G, E,2 C,2 | G,4 G,,2 A,,2 | B,,2 G,,2 C,2 D,2 | G,,8 | x8 | x8 | x8 | %10
 x4 D,4 | G,,3 A,, B,,2 D,2 | A,,4 D,2 D,2 | G,2 B,2 A,2 A,,2 | D,8 | x8 | x8 | x8 | x4 G,4 | %19
 G,2 G,2 G,2 G,2 | C,4 C,2 A,,2 | B,,2 G,,2 D,2 D,2 | G,,8 || x8 | x8 | x8 | G,2 G,G, E,2 C,2 | %27
 G,4 G,,2 A,,2 | B,,2 G,,2 C,2 D,2 | G,,8 | x8 | x8 | x8 | x4 D,4 | G,,3 A,, B,,2 D,2 | %35
 A,,4 D,2 D,2 | G,2 B,2 A,2 A,,2 | D,8 | x8 | x8 | x8 | x4 G,4 | G,2 G,2 G,2 G,2 | C,4 C,2 A,,2 | %44
 B,,2 G,,2 D,2 D,2 | G,,8 | x4 C,4 | G,,8 | z2 D,2 B,,2 D,2 | A,,4 D,4 | x8 | x8 | x8 | %53
 z2 A,,2 D,2 A,,2 | D,4 E,4 | A,,8 | x8 | x8 | x8 | x4 D,4 | G,2 F,2 G,2 E,2 | D,4 D,2 A,,2 | %62
 B,,2 G,,2 C,2 D,2 | G,,8 | x8 | G,,G,,G,,G,, G,,2 B,,2 | G,,4 x4 | G,,G,,G,,G,, G,,2 B,,2 | %68
 G,,4 x2 G,,2 | G,,2 G,,2 B,,2 G,,2 | G,,4 x4 | D,D,D,D, D,2 ^C,2 | D,4 x4 | D,D,D,D, D,2 F,2 | %74
 D,4 x2 A,2 | D,2 D,2 G,2 A,2 | D,4 x2 A,,2 | D,2 D,2 G,,2 A,,2 | D,2 F,2 E,2 A,2 | D,4 F,4 | D,8 | %81
 x4 B,,4 | E,8 | x4 A,,4 | D,2 C,2 B,,2 A,,2 | G,,8 | C,4 A,,4 | C,6 D,2 | E,4 E,4 | A,,8 | x8 | %91
 x8 | x8 | x8 | x8 | x8 | x8 | x4 E,4 | A,2 E,2 F,2 D,2 | A,,4 A,,2 D,2 | G,,2 D,2 A,,2 A,,2 | %101
 D,8 | x8 | x8 | x8 | x4 G,4 | G,2 G,2 G,2 G,2 | C,4 C,2 A,,2 | B,,2 G,,2 D,2 D,2 | G,,4 z2 G,,2 | %110
 G,2 G,2 G,2 G,2 | C,4 C,2 E,2 | D,2 D,2 D,2 D,2 | G,8 | x2 C,2 G,2 G,2 | C,4 C,4 | G,8 |] %117

